src/components/00-materials/images-raw/Health/Ambulance.svg

<svg xmlns="http://www.w3.org/2000/svg" viewBox="0 0 96 96"><defs><style>.cls-2{fill:none;stroke:#00008f;stroke-linecap:round;stroke-linejoin:round;stroke-width:2px}</style></defs><g id="Layer_2" data-name="Layer 2"><g id="icons"><path fill="#fff" d="M0 0h96v96H0z"/><path class="cls-2" d="M32 72h29M30.24 67h32.52"/><circle class="cls-2" cx="24" cy="72" r="8"/><circle class="cls-2" cx="24" cy="72" r="3"/><circle class="cls-2" cx="69" cy="72" r="8"/><circle class="cls-2" cx="69" cy="72" r="3"/><path class="cls-2" d="M77 72h9.5a2.5 2.5 0 0 0 2.5-2.5 2.5 2.5 0 0 0-2.5-2.5H75.24M16 72h-5.5A2.5 2.5 0 0 1 8 69.5a2.5 2.5 0 0 1 2.5-2.5h7.26M87 67V54l-5.36-17.42A12.15 12.15 0 0 0 70 28H57v39"/><path class="cls-2" d="M84.85 49h-16A4.8 4.8 0 0 1 64 44.2V36a2 2 0 0 1 2-2h14.5M65 54h2M10 67V28a5 5 0 0 1 5-5h37a5 5 0 0 1 5 5M87 56h-3a3 3 0 0 0-3 3 3 3 0 0 0 3 3h3"/><path class="cls-2" d="M44 41h-6v-6a1 1 0 0 0-1-1h-6a1 1 0 0 0-1 1v6h-6a1 1 0 0 0-1 1v6a1 1 0 0 0 1 1h6v6a1 1 0 0 0 1 1h6a1 1 0 0 0 1-1v-6h6a1 1 0 0 0 1-1v-6a1 1 0 0 0-1-1zM63 28v-1a4 4 0 0 1 4-4 4 4 0 0 1 4 4v1"/></g></g></svg>

<svg xmlns="http://www.w3.org/2000/svg" viewBox="0 0 96 96"><defs><style>.cls-1{fill:#fff;}.cls-2{fill:none;stroke:#00008f;stroke-linecap:round;stroke-linejoin:round;stroke-width:2px;}</style></defs><title>Ambulance</title><g id="Layer_2" data-name="Layer 2"><g id="icons"><rect class="cls-1" width="96" height="96"/><line class="cls-2" x1="32" y1="72" x2="61" y2="72"/><line class="cls-2" x1="30.24" y1="67" x2="62.76" y2="67"/><circle class="cls-2" cx="24" cy="72" r="8"/><circle class="cls-2" cx="24" cy="72" r="3"/><circle class="cls-2" cx="69" cy="72" r="8"/><circle class="cls-2" cx="69" cy="72" r="3"/><path class="cls-2" d="M77,72h9.5A2.5,2.5,0,0,0,89,69.5h0A2.5,2.5,0,0,0,86.5,67H75.24"/><path class="cls-2" d="M16,72H10.5A2.5,2.5,0,0,1,8,69.5H8A2.5,2.5,0,0,1,10.5,67h7.26"/><path class="cls-2" d="M87,67V54L81.64,36.58A12.15,12.15,0,0,0,70,28H57V67"/><path class="cls-2" d="M84.85,49h-16A4.8,4.8,0,0,1,64,44.2V36a2,2,0,0,1,2-2H80.5"/><line class="cls-2" x1="65" y1="54" x2="67" y2="54"/><path class="cls-2" d="M10,67V28a5,5,0,0,1,5-5H52a5,5,0,0,1,5,5h0"/><path class="cls-2" d="M87,56H84a3,3,0,0,0-3,3h0a3,3,0,0,0,3,3h3"/><path class="cls-2" d="M44,41H38V35a1,1,0,0,0-1-1H31a1,1,0,0,0-1,1v6H24a1,1,0,0,0-1,1v6a1,1,0,0,0,1,1h6v6a1,1,0,0,0,1,1h6a1,1,0,0,0,1-1V49h6a1,1,0,0,0,1-1V42A1,1,0,0,0,44,41Z"/><path class="cls-2" d="M63,28V27a4,4,0,0,1,4-4h0a4,4,0,0,1,4,4v1"/></g></g></svg>
